X:1
T:Distant Greeting -- Reel
R:reel
C:B.F. DIETRICH.
B:Ryan's Mammoth Collection
N: 368
Z: Contributed by Ray Davies,  ray:davies99.freeserve.co.uk
M:C|
L:1/8
K:G
u((3DEF)|\
vGFGA BAGF | EAAB cBAG | Fddd dddd | dfed c"4"edf |
gbag fagf | e^deg =dcBA | G"4"edc BAGF | GDFD G2  :|
|:u(FA)|\
v(dA)AA fA"0"eA | (dA)AA gAfA | (eA)AA aAgA |\
 (fe)df e("2"A"1"^G"2"A) |
"3"G"4"gGg "3"f"2"AAf | "2"e"1"GGe "3"d"2"FFd | cBAd faec |\
 dAcA d2 :|
